T: Willafjord
M: 4/4
L: 1/8
K: Dmaj
| e2 ce Aece | & | e2 ce- eAce || gdaf gfed | & | geaf gfed |
